public/images/icons/fingerprint.svg

<svg width="32" height="32" viewBox="0 0 32 32" fill="none" xmlns="http://www.w3.org/2000/svg">
<path d="M24.3824 20.8969C24.3824 16.4461 20.6294 12.8381 16 12.8381C11.3706 12.8381 7.61765 16.4461 7.61765 20.8969C7.61765 23.9418 8.71552 26.7403 10.5515 28.9463C11.1732 29.6934 11.8797 30.3725 12.6567 30.9703M30.25 12.4023C27.2924 7.82611 22.0163 4.77937 16 4.77937C9.98373 4.77937 4.70765 7.82611 1.75 12.4023M26.0588 3.21834C23.073 1.64478 19.6452 0.75 16 0.75C12.3548 0.75 8.92696 1.64478 5.94118 3.21834M21.0294 31.25C15.8071 30.4747 11.8088 26.1347 11.8088 20.8969C11.8088 18.6715 13.6853 16.8675 16 16.8675C18.3147 16.8675 20.1912 18.6715 20.1912 20.8969C20.1912 23.1222 22.0676 24.9262 24.3824 24.9262C26.6971 24.9262 28.5735 23.1222 28.5735 20.8969C28.5735 14.2208 22.9442 8.80874 16 8.80874C9.05583 8.80874 3.42647 14.2208 3.42647 20.8969C3.42647 22.9342 3.95076 24.8539 4.8767 26.538M16 20.091C16 24.5417 19.7529 28.1497 24.3824 28.1497C24.9565 28.1497 25.5171 28.0942 26.0588 27.9885" stroke="#9394A0" stroke-width="1.5" stroke-linecap="round" stroke-linejoin="round"/>
</svg>

<svg xmlns="http://www.w3.org/2000/svg" width="32" height="32" fill="none"><path stroke="#9394a0" stroke-linecap="round" stroke-linejoin="round" stroke-width="1.5" d="M24.382 20.897c0-4.45-3.753-8.059-8.382-8.059-4.63 0-8.382 3.608-8.382 8.059 0 3.045 1.098 5.843 2.934 8.05a13.3 13.3 0 0 0 2.105 2.023M30.25 12.402C27.292 7.826 22.016 4.78 16 4.78S4.708 7.826 1.75 12.402m24.309-9.184A21.5 21.5 0 0 0 16 .75c-3.645 0-7.073.895-10.059 2.468M21.03 31.25c-5.222-.775-9.22-5.115-9.22-10.353 0-2.225 1.876-4.03 4.191-4.03s4.191 1.805 4.191 4.03 1.877 4.03 4.191 4.03 4.191-1.805 4.191-4.03c0-6.676-5.629-12.088-12.573-12.088S3.426 14.22 3.426 20.897c0 2.037.525 3.957 1.45 5.641M16 20.091c0 4.45 3.753 8.059 8.382 8.059q.863-.002 1.677-.162"/></svg>
